svgs/sharp-thin/sigma.svg

<svg xmlns="http://www.w3.org/2000/svg" viewBox="0 0 384 512"><!--! Font Awesome Pro 7.1.0 by @fontawesome - https://fontawesome.com License - https://fontawesome.com/license (Commercial License) Copyright 2025 Fonticons, Inc. --><path fill="currentColor" d="M0 480l384 0 0-104-16 0 0 88-342.2 0 180.2-202.7 4.7-5.3-4.7-5.3-180.2-202.7 342.2 0 0 88 16 0 0-104-384 0 0 11 2 2.3 187.3 210.7-187.3 210.7-2 2.3 0 11z"/></svg>

<svg xmlns="http://www.w3.org/2000/svg" viewBox="0 0 384 512"><!--! Font Awesome Pro 6.7.2 by @fontawesome - https://fontawesome.com License - https://fontawesome.com/license (Commercial License) Copyright 2024 Fonticons, Inc. --><path d="M0 480l8 0 368 0 8 0 0-8 0-88 0-8-16 0 0 8 0 80L25.8 464 206 261.3l4.7-5.3-4.7-5.3L25.8 48 368 48l0 80 0 8 16 0 0-8 0-88 0-8-8 0L8 32 0 32 0 43l2 2.3L189.3 256 2 466.7 0 469l0 11z"/></svg>
